X:685
T:McKenna's Reel
C:Joe Buchanan's Scottish Tome - Page 214.2
I:214 2
Z:Carl Allison
R:Reel
L:1/8
M:4/4
K:G
cB | "Am"Ga ((3aaa) "Em"ba ((3aaa) | "Am"baab "Em"aged | "G"eg ((3ggg) "D"ag ((3ggg) | "G"agbg "D"aged |
"Am"ea ((3aaa) "Em"ba ((3aaa) | "Am"baab "Em"ageg | "Am"aged "Em"edBA | "G"GABG "Am"A2 :|
ge | "Am"eA ((3AAA) "Em"eABA | "Am"Bdef "Em"gedc | "G"BG ((3GGG) "D"DG ((3GGG) | "G"Bdef "D"gafg |
"Am"cA ((3AAA) "Em"eABA | "Am"Bdef g2 "Em"fg | "Am"aged "Em"edBA | "G"GABG "Am"A2 :|

